!!!!SEGMENT: pl-kozmzk--mzk-m-159--051_walczynski-franciszek-praeludia-organi-op-5-grave.krn
!!!id: 18xx:2794
!!!COM: Walczyński, Franciszek
!!!OTL: Praeludia organi op. 5 – Grave
!!!PDT: 1894
!!!SMS-siglum: PL-KOZmzk
!!!SMS-shelfmark: mzk/m/159
!!!NIFC-rismID: 1001118866
!!!URL-scan: https://repozytorium.nifc.pl/islandora/object/pl-kozmzk%3A2265/datastream/PDF/view
!!!ONB-nifc: UWAGA: numeracja plików zgodna z numeracją źrodłową
!!!SMS-variant:
!!!SMS-altvar:
!!!OMD:51. Grave.
**kern	**kern	**dynam
*part2	*part1	*part1
*staff2	*staff1	*
*I"[Organo]	*	*
*clefF4	*clefG2	*
*k[b-e-a-d-g-c-]	*k[b-e-a-d-g-c-]	*
*M2/2	*M2/2	*
*met(c|)	*met(c|)	*
=1	=1	=1
*^	*^	*
!LO:TX:b:i:t=Ped.	!	!LO:TX:a:t=51. Grave.	!	!
[1E-/	[1EE-\	(2ee-/	(2b-\ 2g-\	ff <
.	.	4ff/	2cc-\ 2a-\	.
.	.	4ddn/	.	[
=2	=2	=2	=2	=2
1E-/]	1EE-\]	2ee-/	2b-\ 2g-\	>
.	.	2b-/)	2g-\)	]
=3	=3	=3	=3	=3
(2e-/	(1AA-\	1cc-/	2g-\	] p <
4f/	.	.	4a-\	.
[4e-/	.	.	4g-\	[
=4	=4	=4	=4	=4
!LO:SIC:v:n=2:s=1BB-	!	!	!	!
2e-/]	1D-\)	1b-/	1f\	>
2dn/)	.	.	.	]
=5	=5	=5	=5	=5
!	!	!LO:TX:b:i:t=Man.	!	!
1rBB	1rA	(2.b-/	4r	.
.	.	.	(4a-\	<
.	.	.	4g-\	.
.	.	4ddn/	4f\	.
=6	=6	=6	=6	=6
1rBB	1rA	4ee-/	4g-\	.
.	.	4dd-X/	4gn\	.
.	.	4cc-/	4a-\	.
.	.	4ccn/	4g-X\	[
=7	=7	=7	=7	=7
*	*	*	*	*^
2rBB	2rA	4dd-X/	2f\	f >	.
.	.	4cc-X/	.	.	.
4rBB	4rA	4b-/	4g-\	.	.
!	!	!	!	!	!LO:DY:b=2
[4B-/	4Dn\	4a-/)	4f\)	]	p
*	*	*	*	*v	*v
=8	=8	=8	=8	=8
!LO:TX:b:i:t=Ped.	!	!	!	!
4B-/]	4E-\	4g-/	2.e-\	] p
4c-/	4AA-\	4a-/	.	.
(4.B-/	2BB-\	4g-/	.	.
.	.	4f/	4dn\	.
8A-/	.	.	.	.
=9	=9	=9	=9	=9
4G-/	(4C-\	2.e-/	(4e-\	.
4Gn/	4BB-\	.	4d-X\	.
2A-/	4AA-\	.	4c-\	.
.	4C-\	4f/	[4e-\	.
=10	=10	=10	=10	=10
8B-/L)	1BB-\)	2g-/	2.e-\]	.
(8E-/	.	.	.	.
8F/	.	.	.	.
8G-X/J	.	.	.	.
8A-/L	.	2f/	.	.
8c-/	.	.	.	.
8B-/	.	.	4dn\)	.
8A-/J)	.	.	.	.
=11	=11	=11	=11	=11
*	*	*	*	*^
!	!	!	!	!LO:DY:b=2	!
(4G-/	[1EE-\	[1e-/	(4B-\	pp	pp <
4A-/	.	.	4c-\	.	.
4G-/	.	.	4B-\	.	.
4F/	.	.	4A-\	.	[
*	*	*	*	*v	*v
=12	=12	=12	=12	=12
1E-/)	1EE-\;]	1e-/;]	1G-\)	> ]
*v	*v	*	*	*
*	*v	*v	*
==	==	==
*-	*-	*-
!!!system-decoration: {(s1,s2)}
!!!ENC: Krzysztof Stępień
!!!END: 2021-07-26
!!!EED: Andrzej Borzym
!!!EST: 2021-08-08
